layouts/icon-pack/spell_tornado.svg

<?xml version="1.0" encoding="UTF-8"?>
<svg width="1200pt" height="1200pt" version="1.1" viewBox="0 0 1200 1200" xmlns="http://www.w3.org/2000/svg">
 <g fill="#fff">
  <path d="m146.09 465.07 0.11719 0.23438z"/>
  <path d="m146.2 465.3v-0.11719l-0.21094-0.42188c-0.16406-0.30469-0.35156-0.82031-0.51563-1.1953-0.375-0.79687-0.70312-1.875-1.0781-2.7891-0.67969-2.0156-1.4062-4.0781-1.9688-6.2578-1.2109-4.457-2.1562-8.9805-2.8359-13.547-1.3516-9.4688-1.6562-19.059-0.91406-28.594 0.16406-4.8516 1.0781-9.7031 1.6875-14.555 1.0781-4.8281 1.7812-9.7031 3.3047-14.484 0.67969-2.3438 1.2656-4.8281 2.0156-7.2188l2.5078-7.0312 1.2656-3.5859c0.44531-1.1719 0.98437-2.3438 1.4766-3.5156l3.0234-7.0312c8.8203-19.117 20.094-37.004 33.539-53.203 3.1641-4.3125 7.0312-8.1797 10.523-12.258l5.3906-6.0703 5.7656-5.8125c3.8906-3.7969 7.5938-7.8281 11.719-11.508l12.258-11.039 3.0703-2.7656 3.2344-2.625 6.4453-5.2266c4.3594-3.4453 8.4844-7.0312 13.055-10.383 9.0469-6.5156 17.789-13.453 27.281-19.5l14.062-9.375c4.6875-3.1172 9.5859-5.9062 14.391-8.8828l14.414-8.8125 14.836-8.2969c39.965-21.973 81.148-41.656 123.35-58.945h0.21094c6.0469-2.3828 10.359-7.8086 11.32-14.234 0.96094-6.4297-1.582-12.879-6.668-16.922-5.0859-4.0469-11.941-5.0703-17.988-2.6875-44.332 16.117-87.711 34.758-129.91 55.828l-15.867 8.0625-15.609 8.6719c-5.1797 2.9531-10.453 5.6953-15.562 8.8125l-15.305 9.375c-10.312 6.0469-20.086 13.125-30.094 19.781-5.0391 3.2812-9.75 7.1484-14.625 10.688l-7.2656 5.4375-3.6797 2.5547-3.5156 2.9062-14.062 11.719c-4.6875 3.9141-9.0703 8.25-13.617 12.375l-6.7266 6.2812-6.4453 6.6797c-4.2422 4.5-8.7422 8.7422-12.68 13.617-16.973 18.906-31.438 39.922-43.031 62.531l-4.1953 8.7891c-0.67969 1.4531-1.4297 2.9062-2.0625 4.4062l-1.8281 4.5469-3.6094 9.1172c-1.125 3.0938-2.0625 6.2578-3.0938 9.375-2.1562 6.2344-3.5156 12.773-5.1562 19.219-1.1719 6.5859-2.5781 13.148-3.1641 19.875-1.582 13.551-1.6758 27.234-0.28125 40.805 0.73047 6.9453 1.8789 13.84 3.4453 20.648 0.75 3.4453 1.7578 7.0312 2.8125 10.453 0.60938 1.8047 1.1016 3.5156 1.8281 5.4141l1.0781 2.8359 0.63281 1.5703 0.375 0.86719 0.58594 1.2422c4.7383 9.1289 13.922 15.105 24.188 15.742 10.27 0.63672 20.117-4.1602 25.949-12.633 5.832-8.4766 6.7891-19.387 2.5273-28.75z"/>
  <path d="m579.47 615.77c0 13.27-10.754 24.023-24.023 24.023-13.27 0-24.023-10.754-24.023-24.023 0-13.27 10.754-24.023 24.023-24.023 13.27 0 24.023 10.754 24.023 24.023"/>
  <path d="m1100.9 392.32c-4.5586-3.4453-7.8242-8.3203-9.2812-13.844-1.4609-5.5273-1.0195-11.379 1.2422-16.625 11.695-26.621 18.668-55.078 20.602-84.094 1.2891-19.688-24.656-28.125-35.367-11.555-14.391 22.172-33.305 47.18-55.641 67.195-12.281 11.016-30.352 9.5625-39.68-4.0312l-0.53906-0.79688c-3.0312-4.7656-4.4414-10.379-4.0156-16.012 0.42188-5.6289 2.6523-10.973 6.3594-15.23 16.523-19.172 51.352-64.266 60.938-113.77 8.6016-44.367-18.984-87.82-62.297-100.78-54.844-16.266-157.57-21.844-333.98 45.914-11.719 4.5-7.3125 21.961 5.1094 20.367 47.414-6.0938 105.7-7.8984 165.87 3.9375 2.6406 0.51172 4.5039 2.8906 4.3633 5.5781-0.14453 2.6875-2.2461 4.8555-4.9258 5.0859-78.867 6.0469-266.02 35.367-422.2 176.04-4.5273 3.9297-7.4102 9.418-8.082 15.375-0.66797 5.957 0.92969 11.945 4.4727 16.781 3.7227 4.8047 9.1875 7.9531 15.211 8.7695 6.0234 0.8125 12.125-0.76953 16.992-4.4102 47.531-35.672 193.34-133.36 380.81-146.84 0 0 31.992-1.9922 59.484 6.9141 19.43 6.3047 23.883 32.039 8.0859 44.977-37.852 31.031-108.56 71.484-210.94 110.93 0 0-227.04 73.195-345.05 40.336 0 0-61.242-29.883 4.4766-91.125 0 0 74.578-65.625 165.28-129.28 12.891-9.0469 1.9688-29.016-12.539-22.945-73.43 30.727-168.35 80.508-252.66 156.4-28.57 25.781-36.75 67.969-18.117 101.6 12.188 22.008 36.258 44.32 81.539 60.82 8.1211 2.9648 14.332 9.6406 16.711 17.953 5.2266 18.094 29.18 48.656 131.81 45.492 0 0 266.79-9.2578 455.11-149.46 3.5273-2.5742 8.4141-2.1523 11.449 0.99219 3.0312 3.1445 3.2773 8.043 0.57422 11.477-30.797 38.344-102.49 98.742-268.12 158.91-5.7227 2.0742-9.0781 8.0117-7.9062 13.984 1.168 5.9727 6.5117 10.203 12.594 9.9688 62.438-2.5547 159-18.633 250.45-83.344 3.4336-2.3867 8.0586-2.1016 11.172 0.6875 3.1133 2.793 3.9023 7.3555 1.9062 11.031-20.672 37.008-75 97.898-215.62 130.31-41.941 10.02-85.652 10.02-127.59 0-20.051-4.6836-39.285-12.363-57.047-22.781-4.8672-2.918-8.3008-7.7305-9.4805-13.285-1.1758-5.5508 0.007813-11.344 3.2695-15.988l0.39844-0.5625c1.3984-1.957 1.2695-4.6172-0.30469-6.4336-1.5781-1.8164-4.1953-2.3164-6.3281-1.207-19.754 10.48-38.375 22.969-55.57 37.266-5.3984 4.457-9.0586 10.664-10.344 17.543-1.2852 6.8828-0.11328 13.996 3.3125 20.098 11.074 18.973 25.645 35.672 42.938 49.219 3.4219 2.6797 4.4414 7.4219 2.4219 11.27-2.0195 3.8477-6.5 5.7031-10.648 4.4102-19.781-6.2344-45.914-20.156-74.742-50.414-23.203-24.328-64.172-9.0469-66.211 24.516-1.0547 17.602 2.3438 39.352 14.203 65.812-6.9961-8.2461-15.312-15.27-24.609-20.789-12.746-7.3008-28.152-8.3047-41.738-2.7266-13.59 5.582-23.84 17.121-27.777 31.273-8.5078 30-9.8672 84.141 57.328 140.84 2.7188 2.0391 3.5898 5.7305 2.0703 8.7695-1.5195 3.0391-4.9961 4.5586-8.2578 3.6055-42.191-8.9219-78.41-35.77-99.211-73.547-2.4883-4.7109-6.8633-8.1406-12.031-9.4336s-10.641-0.32422-15.055 2.6602c-4.4141 2.9844-7.3477 7.707-8.0703 12.984-2.5781 15.844-1.7812 35.906 7.0312 59.883 2.5195 6.7227 2.7344 14.094 0.60938 20.953-6.6562 21.094-15.492 71.344 30.773 116.39 27.715 26.457 64.527 41.262 102.84 41.367 24.914 0.28125 57.023-1.6641 87.68-10.219 17.32-4.8516 14.93-30.164-3-31.477-26.859-1.9688-57.445-9.0469-84.375-27.352-2.8398-1.9414-3.9805-5.5742-2.7617-8.793 1.2188-3.2148 4.4805-5.1797 7.8945-4.7539 20.836 2.4844 50.625 3.6562 77.555-4.2188 7.0742-1.9922 14.539-2.1797 21.703-0.53906 32.812 7.0312 127.24 22.359 199.83-19.336 13.566-7.9531 29.039-12.07 44.766-11.906 59.953 1.1953 212.02-10.758 270.4-155.39 4.4414-11.051 12.336-20.371 22.5-26.578 29.227-17.836 91.406-65.062 127.69-159.77 8.2266-21.539-19.805-38.25-34.875-20.812-49.219 56.93-130.71 124.1-252.21 145.97 0 0-72.375 6.7969-124.08-16.406-5.1211-2.3203-8.0117-7.8281-7.0156-13.363s5.625-9.6836 11.234-10.074c82.172-5.8594 285.21-42.07 433.24-250.17 12.438-17.074 20.262-37.07 22.711-58.055 1.9922-18.586-0.49219-39.445-16.711-52.125zm-400.1 515.13c11.133 2.0391 8.625 16.875 0 20.133-43.594 16.406-94.43 9.75-137.6-4.6875-22.934-7.457-44.949-17.488-65.625-29.906-17.789-10.945-39.047-24.328-46.477-44.742-3.8672-10.664 7.4766-18.211 16.688-16.664 19.453 3.2812 37.781 19.664 54.961 28.945 18.004 9.8516 36.941 17.891 56.531 24 39.961 12.164 80.789 15.469 121.52 22.922z"/>
  <path d="m212.34 554.93c0 16.516-13.391 29.906-29.906 29.906s-29.906-13.391-29.906-29.906c0-16.516 13.391-29.906 29.906-29.906s29.906 13.391 29.906 29.906"/>
 </g>
</svg>

<?xml version="1.0" encoding="UTF-8" standalone="no"?>
<!DOCTYPE svg PUBLIC "-//W3C//DTD SVG 1.1//EN" "http://www.w3.org/Graphics/SVG/1.1/DTD/svg11.dtd">
<svg width="100%" height="100%" viewBox="0 0 503 512" version="1.1" xmlns="http://www.w3.org/2000/svg" xmlns:xlink="http://www.w3.org/1999/xlink" xml:space="preserve" xmlns:serif="http://www.serif.com/" style="fill-rule:evenodd;clip-rule:evenodd;stroke-linejoin:round;stroke-miterlimit:2;">
    <g transform="matrix(1,0,0,1,-81.8014,-72.2835)">
        <g transform="matrix(0.485107,0,0,0.485107,42.119,37.2183)">
            <path d="M146.09,465.07L146.207,465.304L146.09,465.07Z" style="fill:white;fill-rule:nonzero;"/>
            <path d="M146.2,465.3L146.2,465.183L145.989,464.761C145.825,464.456 145.638,463.941 145.473,463.566C145.098,462.769 144.77,461.691 144.395,460.777C143.716,458.761 142.989,456.698 142.427,454.519C141.216,450.062 140.27,445.538 139.591,440.972C138.239,431.503 137.934,421.913 138.677,412.378C138.841,407.526 139.755,402.675 140.364,397.823C141.442,392.995 142.145,388.12 143.669,383.339C144.348,380.995 144.934,378.511 145.684,376.12L148.192,369.089L149.458,365.503C149.903,364.331 150.442,363.159 150.934,361.987L153.958,354.956C162.778,335.839 174.052,317.952 187.497,301.753C190.661,297.441 194.528,293.573 198.02,289.495L203.41,283.425L209.176,277.612C213.067,273.815 216.77,269.784 220.895,266.104L233.153,255.065L236.223,252.3L239.458,249.675L245.903,244.448C250.262,241.003 254.387,237.417 258.958,234.065C268.005,227.549 276.747,220.612 286.239,214.565L300.301,205.19C304.988,202.073 309.887,199.284 314.692,196.307L329.106,187.495L343.942,179.198C383.907,157.225 425.09,137.542 467.292,120.253L467.503,120.253C473.55,117.87 477.862,112.444 478.823,106.019C479.784,99.589 477.241,93.14 472.155,89.097C467.069,85.05 460.214,84.027 454.167,86.409C409.835,102.526 366.456,121.167 324.257,142.237L308.39,150.3L292.781,158.972C287.601,161.925 282.328,164.667 277.219,167.784L261.914,177.159C251.602,183.206 241.828,190.284 231.82,196.94C226.781,200.221 222.07,204.089 217.195,207.628L209.929,213.066L206.25,215.62L202.734,218.527L188.672,230.246C183.985,234.16 179.602,238.496 175.055,242.621L168.328,248.902L161.883,255.582C157.641,260.082 153.141,264.324 149.203,269.199C132.23,288.105 117.765,309.121 106.172,331.73L101.977,340.519C101.297,341.972 100.547,343.425 99.914,344.925L98.086,349.472L94.477,358.589C93.352,361.683 92.414,364.847 91.383,367.964C89.227,374.198 87.867,380.737 86.227,387.183C85.055,393.769 83.649,400.331 83.063,407.058C81.481,420.609 81.387,434.292 82.781,447.863C83.512,454.808 84.66,461.703 86.227,468.511C86.977,471.956 87.985,475.542 89.039,478.964C89.649,480.769 90.141,482.48 90.867,484.378L91.945,487.214L92.578,488.784L92.953,489.651L93.539,490.894C98.278,500.023 107.461,505.999 117.727,506.636C127.997,507.272 137.844,502.475 143.676,494.003C149.508,485.526 150.465,474.616 146.204,465.253L146.2,465.3Z" style="fill:white;fill-rule:nonzero;"/>
            <path d="M579.47,615.77C579.47,629.04 568.716,639.793 555.447,639.793C542.177,639.793 531.424,629.039 531.424,615.77C531.424,602.5 542.178,591.747 555.447,591.747C568.717,591.747 579.47,602.501 579.47,615.77" style="fill:white;fill-rule:nonzero;"/>
            <path d="M1100.9,392.32C1096.34,388.875 1093.08,384 1091.62,378.476C1090.16,372.949 1090.6,367.097 1092.86,361.851C1104.56,335.23 1111.53,306.773 1113.46,277.757C1114.75,258.069 1088.81,249.632 1078.1,266.202C1063.7,288.374 1044.79,313.382 1022.46,333.397C1010.17,344.413 992.103,342.96 982.775,329.366L982.236,328.569C979.205,323.803 977.795,318.19 978.22,312.557C978.642,306.928 980.873,301.584 984.58,297.327C1001.1,278.155 1035.93,233.061 1045.52,183.557C1054.12,139.19 1026.53,95.737 983.221,82.777C928.377,66.511 825.651,60.933 649.241,128.691C637.522,133.191 641.928,150.652 654.35,149.058C701.764,142.964 760.05,141.16 820.22,152.995C822.861,153.507 824.724,155.886 824.583,158.574C824.439,161.261 822.337,163.429 819.658,163.659C740.791,169.706 553.638,199.026 397.458,339.699C392.93,343.629 390.047,349.117 389.376,355.074C388.708,361.031 390.305,367.019 393.848,371.855C397.571,376.66 403.036,379.809 409.059,380.625C415.083,381.437 421.184,379.855 426.051,376.215C473.582,340.543 619.391,242.855 806.861,229.375C806.861,229.375 838.853,227.383 866.345,236.289C885.775,242.594 890.228,268.328 874.431,281.266C836.579,312.297 765.871,352.75 663.491,392.196C663.491,392.196 436.451,465.391 318.441,432.532C318.441,432.532 257.199,402.649 322.918,341.407C322.918,341.407 397.496,275.782 488.198,212.127C501.089,203.08 490.167,183.111 475.659,189.182C402.229,219.909 307.309,269.69 222.999,345.582C194.429,371.363 186.249,413.551 204.882,447.182C217.07,469.19 241.14,491.502 286.421,508.002C294.542,510.967 300.753,517.642 303.132,525.955C308.358,544.049 332.312,574.611 434.942,571.447C434.942,571.447 701.732,562.189 890.052,421.987C893.579,419.413 898.466,419.835 901.501,422.979C904.532,426.124 904.778,431.022 902.075,434.456C871.278,472.8 799.585,533.198 633.955,593.366C628.232,595.44 624.877,601.378 626.049,607.35C627.217,613.323 632.561,617.553 638.643,617.319C701.081,614.764 797.643,598.686 889.093,533.975C892.526,531.588 897.151,531.873 900.265,534.662C903.378,537.455 904.167,542.018 902.171,545.693C881.499,582.701 827.171,643.591 686.551,676.003C644.61,686.023 600.899,686.023 558.961,676.003C538.91,671.32 519.676,663.64 501.914,653.222C497.047,650.304 493.613,645.492 492.434,639.937C491.258,634.387 492.441,628.593 495.703,623.949L496.102,623.387C497.5,621.43 497.371,618.77 495.797,616.953C494.219,615.137 491.602,614.637 489.469,615.746C469.715,626.226 451.094,638.715 433.899,653.012C428.5,657.469 424.84,663.676 423.555,670.555C422.27,677.438 423.441,684.551 426.867,690.653C437.941,709.626 452.512,726.325 469.805,739.872C473.227,742.552 474.247,747.294 472.227,751.142C470.208,754.99 465.727,756.845 461.579,755.552C441.798,749.318 415.665,735.396 386.837,705.138C363.634,680.81 322.665,696.092 320.626,729.654C319.571,747.256 322.97,769.006 334.829,795.466C327.833,787.22 319.517,780.196 310.22,774.677C297.474,767.377 282.068,766.373 268.482,771.951C254.892,777.533 244.642,789.072 240.705,803.224C232.197,833.224 230.838,887.365 298.033,944.064C300.752,946.103 301.623,949.794 300.103,952.833C298.584,955.872 295.107,957.392 291.846,956.439C249.655,947.517 213.436,920.669 192.635,882.892C190.146,878.181 185.771,874.751 180.604,873.458C175.436,872.165 169.963,873.134 165.549,876.118C161.135,879.103 158.201,883.825 157.478,889.102C154.9,904.946 155.697,925.008 164.51,948.985C167.029,955.708 167.244,963.079 165.119,969.938C158.463,991.032 149.627,1041.28 195.892,1086.33C223.607,1112.79 260.419,1127.59 298.732,1127.69C323.646,1127.98 355.755,1126.03 386.412,1117.48C403.732,1112.62 401.342,1087.31 383.412,1086C356.553,1084.03 325.967,1076.95 299.037,1058.65C296.197,1056.71 295.056,1053.07 296.275,1049.85C297.494,1046.64 300.756,1044.67 304.17,1045.1C325.006,1047.59 354.795,1048.76 381.725,1040.88C388.799,1038.89 396.264,1038.7 403.428,1040.34C436.24,1047.37 530.668,1062.7 603.258,1021.01C616.824,1013.05 632.297,1008.94 648.024,1009.1C707.977,1010.3 860.044,998.343 918.424,853.711C922.865,842.66 930.76,833.34 940.924,827.133C970.151,809.297 1032.33,762.071 1068.61,667.363C1076.84,645.824 1048.81,629.113 1033.74,646.551C984.52,703.481 903.029,770.651 781.529,792.521C781.529,792.521 709.154,799.318 657.449,776.115C652.328,773.794 649.437,768.287 650.433,762.752C651.429,757.217 656.058,753.068 661.667,752.678C743.839,746.818 946.877,710.608 1094.91,502.508C1107.35,485.434 1115.17,465.438 1117.62,444.453C1119.61,425.867 1117.13,405.008 1100.91,392.328L1100.9,392.32ZM700.8,907.45C711.933,909.489 709.425,924.325 700.8,927.583C657.206,943.989 606.37,937.333 563.2,922.896C540.266,915.439 518.251,905.408 497.575,892.99C479.786,882.045 458.528,868.662 451.098,848.248C447.231,837.584 458.575,830.037 467.786,831.584C487.239,834.865 505.567,851.248 522.747,860.529C540.751,870.38 559.688,878.42 579.278,884.529C619.239,896.693 660.067,899.998 700.798,907.451L700.8,907.45Z" style="fill:white;fill-rule:nonzero;"/>
            <path d="M212.34,554.93C212.34,571.446 198.949,584.836 182.434,584.836C165.919,584.836 152.528,571.445 152.528,554.93C152.528,538.414 165.919,525.024 182.434,525.024C198.949,525.024 212.34,538.415 212.34,554.93" style="fill:white;fill-rule:nonzero;"/>
        </g>
    </g>
</svg>
